src/main/resources/icons/JavaeeCdiIcons/icons/microprofile.svg

<svg width="16" height="16" viewBox="0 0 16 16" fill="none" xmlns="http://www.w3.org/2000/svg">
  <path fill-rule="evenodd" clip-rule="evenodd" d="M7.13461 5.93662C7.31747 5.64233 7.42308 5.29504 7.42308 4.92308C7.42308 3.86099 6.56209 3 5.5 3C4.43791 3 3.57692 3.86099 3.57692 4.92308C3.57692 5.02561 3.58495 5.12628 3.6004 5.22447C3.74177 7.18465 3.52976 7.52154 3.31276 7.86638L3.28846 7.9051C2.59271 9.02046 2.28923 9.10853 1.89112 9.22407L1.89111 9.22407C1.7631 9.26122 1.62531 9.30121 1.46154 9.37911C0.896073 9.62171 0.5 10.1835 0.5 10.8378C0.5 11.714 1.21032 12.4243 2.08654 12.4243C2.96276 12.4243 3.67308 11.714 3.67308 10.8378C3.67308 10.5524 3.61706 10.3926 3.56549 10.2456C3.52151 10.1201 3.48077 10.004 3.48077 9.82692C3.48077 9.34616 3.49001 8.99575 3.96154 8.28846C4.43306 7.58118 5.30769 6.84615 5.78846 6.84615C6.44807 6.84615 7.57864 7.58491 7.35213 9.15292C7.3356 9.23088 7.32692 9.31158 7.32692 9.39423C7.32692 10.058 7.88657 10.5962 8.57692 10.5962C9.26728 10.5962 9.82692 10.058 9.82692 9.39423V8.57692C9.82692 8.48077 10.3077 6.55769 11.3654 6.55769C11.5489 6.55769 13.1342 7.43374 12.9435 9.68756C12.9176 9.79365 12.9038 9.90477 12.9038 10.0192C12.9038 10.7627 13.485 11.3654 14.2019 11.3654C14.9188 11.3654 15.5 10.7627 15.5 10.0192C15.5 9.4708 15.1838 8.99898 14.7301 8.78917C14.7303 8.78893 14.7305 8.78869 14.7308 8.78846C12.4837 7.75137 12.6448 6.01553 12.7004 5.4162L12.7004 5.41618C12.7066 5.34872 12.7115 5.29566 12.7115 5.25962C12.7115 4.54271 12.1304 3.96154 11.4135 3.96154C10.7125 3.96154 10.1413 4.5171 10.1162 5.21192C10.116 5.21179 10.1157 5.21166 10.1154 5.21154C10.1156 5.21325 10.1159 5.21497 10.1161 5.21668C10.1156 5.23094 10.1154 5.24525 10.1154 5.25962C10.1154 5.36262 10.1264 5.46282 10.1474 5.5589C10.234 7.42481 8.85557 8.21674 8.73796 8.20219C8.71517 8.19937 8.69219 8.19714 8.66903 8.19552L8.67308 8.19231C8.57692 8.19231 6.61878 7.44504 7.13461 5.93662ZM12.0385 5.21154C12.0385 5.58327 11.7371 5.88462 11.3654 5.88462C10.9937 5.88462 10.6923 5.58327 10.6923 5.21154C10.6923 4.83981 10.9937 4.53846 11.3654 4.53846C11.7371 4.53846 12.0385 4.83981 12.0385 5.21154Z" fill="#FDB63D"/>
</svg>

<svg width="16" height="16" viewBox="0 0 16 16" fill="none" xmlns="http://www.w3.org/2000/svg"><rect id="frame" width="16" height="16" fill="none"/><path fill-rule="evenodd" clip-rule="evenodd" d="M7.135 5.937A1.923 1.923 0 1 0 3.6 5.225c.14 1.96-.071 2.297-.288 2.641l-.025.04C2.593 9.02 2.29 9.108 1.891 9.223a2.643 2.643 0 0 0-.43.155 1.587 1.587 0 1 0 2.212 1.459c0-.286-.056-.445-.108-.592-.043-.126-.084-.242-.084-.42 0-.48.009-.83.48-1.538.472-.707 1.347-1.442 1.827-1.442.66 0 1.79.739 1.564 2.307a1.162 1.162 0 0 0-.025.241c0 .664.56 1.202 1.25 1.202s1.25-.538 1.25-1.202v-.817c0-.096.48-2.02 1.538-2.02.184 0 1.77.877 1.579 3.13-.026.107-.04.218-.04.332 0 .744.581 1.346 1.298 1.346.717 0 1.298-.602 1.298-1.346a1.35 1.35 0 0 0-.77-1.23c-2.246-1.038-2.085-2.773-2.03-3.373a1.298 1.298 0 0 0-2.585-.205l.001.006v.043c0 .103.01.203.031.299.087 1.866-1.291 2.658-1.409 2.643a1.3 1.3 0 0 0-.069-.006l.004-.004c-.096 0-2.054-.747-1.538-2.255zm4.904-.725a.673.673 0 1 1-1.347 0 .673.673 0 0 1 1.347 0z" fill="#FDB63D"/></svg>
